X:1
T:[ID 2-33]
T:[ID 2-33]
T:Bezeichnung standardisiert: Schwabisch Schwabisch
T:Urheber unbekannt Erstbeleg: 1767 (Datum in der schriftlichen Quelle) Datum in der hier transkribierten schriftlichen Quelle: 1796
C:Urheber unbekannt
C:Erstbeleg: 1767 (Datum in der schriftlichen Quelle)
C:Datum in der hier transkribierten schriftlichen Quelle: 1796
L:1/8
M:3/8
K:D
V:1 treble 
V:1
 A | dfd | a2 f | gb/g/e | c/d/e/c/A | dfd | a2 f | gb/g/e/c/ | d2 :: a | e2 d | cB/c/A | [ce]2 d | %13
 c/d/e/c/A | dfd | a2 f | gb/g/e/c/ | d2 :| %18

